Obsidian/actions/22s/mail-folder-sent.svg

<svg height="22" width="22" xmlns="http://www.w3.org/2000/svg"><path d="m2 1s-1 0-1 1v11s0 1 1 1h12s1 0 1-1v-9c0-1-1-1-1-1h-5l-2-2zm6 3c2.209 0 4 1.791 4 4v.5c0 .829-.672 1.5-1.5 1.5-.443 0-.8633-.196-1.1484-.535-.3564.329-.8285.535-1.3516.535-1.1046 0-2-.895-2-2 0-1.1044.8954-2 2-2s2 .8956 2 2v.5c0 .2763.224.5.5.5s.5-.2237.5-.5v-.5c0-1.6568-1.3431-3-3-3s-3 1.3432-3 3c0 1.657 1.3431 3 3 3h2.5s.5 0 .5.5c-.031.5-.5.5-.5.5h-2.5c-2.2091 0-4-1.791-4-4s1.7909-4 4-4zm0 3c-.5523 0-1 .4479-1 1 0 .5524.4477 1 1 1s1-.4476 1-1c0-.5521-.4477-1-1-1z" fill="#bebebe" transform="translate(3 3)"/></svg>

<svg xmlns="http://www.w3.org/2000/svg" width="22" height="22" version="1.1">
 <defs>
  <style id="current-color-scheme" type="text/css">
   .ColorScheme-Text { color:#bebebe; } .ColorScheme-Highlight { color:#4285f4; }
  </style>
 </defs>
 <g transform="matrix(1,0,0,1,3,3)">
  <path style="fill:currentColor" class="ColorScheme-Text" d="M 2,1 C 2,1 1,1 1,2 V 13 C 1,13 1,14 2,14 H 14 C 14,14 15,14 15,13 V 4 C 15,3 14,3 14,3 H 9 L 7,1 Z M 8,4 C 10.209,4 12,5.791 12,8 V 8.5 C 12,9.329 11.328,10 10.5,10 10.057,10 9.6367,9.804 9.3516,9.465 8.9952,9.794 8.5231,10 8,10 6.8954,10 6,9.105 6,8 6,6.8956 6.8954,6 8,6 9.1046,6 10,6.8956 10,8 V 8.5 C 10,8.7763 10.224,9 10.5,9 10.776,9 11,8.7763 11,8.5 V 8 C 11,6.3432 9.6569,5 8,5 6.3431,5 5,6.3432 5,8 5,9.657 6.3431,11 8,11 H 10.5 C 10.5,11 11,11 11,11.5 10.969,12 10.5,12 10.5,12 H 8 C 5.7909,12 4,10.209 4,8 4,5.791 5.7909,4 8,4 Z M 8,7 C 7.4477,7 7,7.4479 7,8 7,8.5524 7.4477,9 8,9 8.5523,9 9,8.5524 9,8 9,7.4479 8.5523,7 8,7 Z"/>
 </g>
</svg>
